assets/badgeSaving.svg

<svg width="50" height="51" viewBox="0 0 50 51" fill="none" xmlns="http://www.w3.org/2000/svg">
<rect y="0.723633" width="50" height="50" rx="25" fill="#E8F2EE"/>
<path d="M22.6668 35.057H18.0002V37.3903H15.6668V35.057H14.5002C14.1907 35.057 13.894 34.9341 13.6752 34.7153C13.4564 34.4965 13.3335 34.1998 13.3335 33.8903V16.3903C13.3335 16.0809 13.4564 15.7842 13.6752 15.5654C13.894 15.3466 14.1907 15.2237 14.5002 15.2237H22.6668V13.5787C22.6669 13.494 22.6853 13.4103 22.721 13.3335C22.7566 13.2567 22.8085 13.1886 22.8731 13.1338C22.9377 13.0791 23.0135 13.0391 23.0951 13.0166C23.1767 12.9941 23.2623 12.9896 23.3458 13.0035L35.6915 15.0615C35.9639 15.1068 36.2114 15.2472 36.39 15.4579C36.5686 15.6685 36.6667 15.9357 36.6668 16.2118V18.7237H37.8335V21.057H36.6668V29.2237H37.8335V31.557H36.6668V34.0688C36.6667 34.345 36.5686 34.6122 36.39 34.8228C36.2114 35.0334 35.9639 35.1739 35.6915 35.2192L34.3335 35.4455V37.3903H32.0002V35.8352L23.3458 37.2772C23.2623 37.2911 23.1767 37.2866 23.0951 37.2641C23.0135 37.2416 22.9377 37.2016 22.8731 37.1468C22.8085 37.0921 22.7566 37.024 22.721 36.9472C22.6853 36.8703 22.6669 36.7867 22.6668 36.702V35.057ZM25.0002 34.637L34.3335 33.0807V17.2L25.0002 15.6448V34.6358V34.637ZM30.2502 28.057C29.2842 28.057 28.5002 26.7503 28.5002 25.1403C28.5002 23.5303 29.2842 22.2237 30.2502 22.2237C31.2162 22.2237 32.0002 23.5303 32.0002 25.1403C32.0002 26.7503 31.2162 28.057 30.2502 28.057Z" fill="#5BB5A2"/>
</svg>

<svg xmlns="http://www.w3.org/2000/svg" width="50" height="51" fill="none"><rect width="50" height="50" y=".724" fill="#E8F2EE" rx="25"/><path fill="#5BB5A2" d="M22.667 35.057H18v2.333h-2.333v-2.333H14.5a1.167 1.167 0 0 1-1.166-1.167v-17.5a1.167 1.167 0 0 1 1.166-1.166h8.167v-1.645a.583.583 0 0 1 .679-.575l12.345 2.058a1.166 1.166 0 0 1 .976 1.15v2.512h1.166v2.333h-1.166v8.167h1.166v2.333h-1.166v2.512a1.166 1.166 0 0 1-.976 1.15l-1.358.227v1.944H32v-1.555l-8.654 1.442a.583.583 0 0 1-.68-.575v-1.645Zm2.333-.42 9.334-1.556V17.2L25 15.645V34.637Zm5.25-6.58c-.966 0-1.75-1.307-1.75-2.917 0-1.61.784-2.916 1.75-2.916S32 23.53 32 25.14c0 1.61-.784 2.917-1.75 2.917Z"/></svg>
